X: 1
T: World Turned Upside Down
T: When the King Receives His Own Again
O: England late 1600s
C:
M:C
L:1/8
F:http://www.kitchenmusician.net/giftunes/kingrec.gif
Z: 2006 John Chambers <jc:trillian.mit.edu>
K:D
     A2 \
| "D"A2A2  d2d2 | "A"efga "D"f2ef | "G"gzB2 "A"c2d2 | "A"e3d "D"d2  :|
|: ze \
| "A"e2cd  e3f  | "A"edcd    e3f  | "A"edcd    e2dc | "E"B3A "A"A2z2 |
| "D"a2a>g f2ed | "A"e>fga   f2ef | "G"gzB2 "A"c2d2 | "A"e3d "D"d2  :|
